img/vantage/1.svg

<svg width="193" height="162" viewBox="0 0 193 162" fill="none" xmlns="http://www.w3.org/2000/svg">
<g filter="url(#filter0_f_421_1778)">
<path d="M79.9744 105.1C81.9647 105.772 84.1344 107.513 85.9812 108.61L124.743 138.277C127.442 140.135 126.867 141.837 124.446 142.441C124.446 142.441 124.446 142.441 123.308 142.531C123.308 142.531 123.307 142.531 122.169 142.62L74.4958 142.642C72.362 142.395 70.2281 142.149 68.2378 141.477C66.2475 140.805 64.4007 139.708 62.554 138.611L23.792 108.945C23.792 108.945 23.792 108.945 22.9404 108.184C22.9404 108.184 22.9404 108.184 22.0888 107.422C20.5292 105.474 20.9599 104.198 24.376 103.93L73.1877 103.819C75.3216 104.065 76.9901 104.001 79.9744 105.1Z" fill="#26255F" fill-opacity="0.3"/>
</g>
<path d="M152.561 85.0878L151.269 88.9163C151.125 89.3417 149.986 89.4312 149.986 89.4312L151.278 85.6027C151.278 85.6027 152.417 85.5132 152.561 85.0878Z" fill="#919191"/>
<path d="M151.131 86.0327L149.839 89.8612C149.839 89.8612 149.839 89.8612 149.695 90.2865L151.131 86.0327C150.136 85.6968 150.136 85.6968 151.131 86.0327Z" fill="#919191"/>
<path d="M49.6262 51.7686L48.3343 55.597C48.3343 55.597 48.3343 55.597 47.4826 54.8357C46.6309 54.0744 46.7744 53.6491 47.0616 52.7983L48.21 49.3953C48.0664 49.8206 48.7745 51.0073 49.6262 51.7686Z" fill="#848484"/>
<path d="M150.135 85.6987L148.843 89.5274C148.843 89.5274 148.843 89.5273 147.704 89.6168L150.135 85.6987C150.135 85.6987 149.991 86.1241 150.135 85.6987Z" fill="#8C8C8C"/>
<path d="M50.4773 52.5358L49.1855 56.3644C49.1855 56.3644 49.1855 56.3643 48.3339 55.603L50.4773 52.5358C50.4773 52.5358 50.6208 52.1104 50.4773 52.5358Z" fill="#848484"/>
<path d="M148.999 85.7847L147.707 89.6132L99.8901 90.0599L101.182 86.2314L148.999 85.7847Z" fill="#939393"/>
<path d="M89.2385 82.1989L87.9465 86.0274L49.1845 56.361L50.4766 52.5325L89.2385 82.1989Z" fill="#808080"/>
<path d="M101.183 86.2211L99.8905 90.0496C99.8905 90.0496 98.8954 89.7137 98.7518 90.1391L101.183 86.2211C100.187 85.8852 100.044 86.3106 101.183 86.2211Z" fill="#8C8C8C"/>
<path d="M100.041 86.307L98.749 90.1355C97.7538 89.7996 97.6103 90.225 96.6151 89.8891L97.9072 86.0606C99.0459 85.9711 99.0459 85.9711 100.041 86.307Z" fill="#888888"/>
<path d="M97.9085 86.063L96.76 89.4661C95.7649 89.1302 94.7697 88.7944 93.7745 88.4585C91.7842 87.7868 89.9375 86.6897 88.0907 85.5926L89.2393 82.1895C91.086 83.2866 92.9328 84.3837 94.9231 85.0554C95.9182 85.3913 96.9134 85.7271 97.9085 86.063Z" fill="#848484"/>
<path d="M141.076 119.115L139.784 122.944L139.641 123.369L141.076 119.115C141.076 119.115 140.081 118.779 141.076 119.115Z" fill="#838383"/>
<path d="M138.793 119.297L137.501 123.126L136.506 122.79L137.654 119.387L138.793 119.297Z" fill="#828282"/>
<path fill-rule="evenodd" clip-rule="evenodd" d="M49.5121 51.8151C49.0336 51.499 48.6874 51.2703 48.7761 51.0074L48.7761 51.0074C48.8281 50.8534 48.8612 50.7552 48.8352 50.6765C48.7893 50.538 48.5594 50.4604 47.9246 50.2462L47.9245 50.2462L36.8699 83.0011C36.866 83.0127 36.8623 83.0243 36.8587 83.036C36.8614 83.0233 36.8647 83.011 36.8686 82.9994L35.5765 86.8279C35.3475 87.5065 36.5605 88.5549 37.9979 89.5082L37.9878 89.5381L76.6062 119.63L77.8983 115.801L77.8983 115.801L89.2386 82.1998L50.4778 52.5343L50.4793 52.5299C50.154 52.2391 49.8078 52.0104 49.5121 51.8151ZM39.1363 86.1349L39.1362 86.1352L39.1362 86.1348L39.1363 86.1349Z" fill="url(#paint0_linear_421_1778)"/>
<path d="M89.8389 119.837L88.5468 123.665L87.5517 123.329L88.7002 119.926L89.8389 119.837Z" fill="#828282"/>
<path d="M98.0537 85.6401C99.0489 85.9759 99.0489 85.9759 98.0537 85.6401L99.0489 85.9759L87.7071 119.582L85.5733 119.335L98.0537 85.6401C97.9102 86.0654 97.9102 86.0654 98.0537 85.6401Z" fill="#888888"/>
<path d="M86.5706 119.676L85.2785 123.504L86.5706 119.676C85.5754 119.34 85.5754 119.34 86.5706 119.676Z" fill="#808080"/>
<path d="M85.5733 119.326L84.2815 123.155L83.2863 122.819L85.5733 119.326C85.5733 119.326 84.5781 118.99 85.5733 119.326Z" fill="#808080"/>
<path fill-rule="evenodd" clip-rule="evenodd" d="M152.534 85.5014L140.914 119.933C140.247 121.908 138.38 123.226 136.296 123.192L126.384 123.033L88.9137 123.966C87.3586 124.219 84.6081 123.945 81.715 122.355L81.4985 122.282C79.5082 121.61 75.2988 119.294 73.5832 116.846L77.2805 113.422C77.6304 113.63 78.0099 113.928 78.4086 114.278L89.2373 82.1928C90.5412 82.9674 91.8452 83.7421 93.1997 84.367L93.3055 84.0191L152.534 85.5014Z" fill="url(#paint1_linear_421_1778)"/>
<g style="mix-blend-mode:lighten" filter="url(#filter1_f_421_1778)">
<path d="M107.317 50.6777C109.307 51.3495 111.154 52.4466 113.001 53.5437L151.763 83.2101C154.461 85.0685 153.887 86.77 151.466 87.3745C151.466 87.3745 151.466 87.3745 150.327 87.464C150.327 87.464 150.327 87.464 149.188 87.5535L101.515 87.5747C99.3814 87.3284 97.2476 87.0821 95.2573 86.4104C93.267 85.7387 91.4202 84.6415 89.5735 83.5444L50.8115 53.878C50.8115 53.878 50.8114 53.878 49.9599 53.1167C49.9599 53.1167 49.9599 53.1167 49.1083 52.3555C47.5487 50.4076 47.9794 49.1314 51.3955 48.8629L100.207 48.7521C102.341 48.9984 105.327 50.006 107.317 50.6777Z" fill="url(#paint2_linear_421_1778)" fill-opacity="0.6"/>
</g>
<path d="M106.66 48.6827C108.65 49.3544 110.82 51.0961 112.667 52.1932L151.429 81.8596C154.127 83.718 153.553 85.4195 151.132 86.024C151.132 86.024 151.132 86.024 149.993 86.1135C149.993 86.1135 149.993 86.1135 148.854 86.2031L101.181 86.2243C99.0475 85.9779 96.9136 85.7316 94.9233 85.0599C92.933 84.3882 91.0863 83.2911 89.2395 82.194L50.4775 52.5275C50.4775 52.5275 50.4775 52.5275 49.6259 51.7663C49.6259 51.7663 49.6259 51.7663 48.7743 51.005C47.2147 49.0572 47.6454 47.781 51.0616 47.5124L99.8733 47.4016C102.007 47.648 103.676 47.5839 106.66 48.6827Z" fill="url(#paint3_linear_421_1778)"/>
<defs>
<filter id="filter0_f_421_1778" x="11.7782" y="94.3725" width="124.196" height="57.7155" filterUnits="userSpaceOnUse" color-interpolation-filters="sRGB">
<feFlood flood-opacity="0" result="BackgroundImageFix"/>
<feBlend mode="normal" in="SourceGraphic" in2="BackgroundImageFix" result="shape"/>
<feGaussianBlur stdDeviation="4.72318" result="effect1_foregroundBlur_421_1778"/>
</filter>
<filter id="filter1_f_421_1778" x="0.322521" y="0.830578" width="201.147" height="134.666" filterUnits="userSpaceOnUse" color-interpolation-filters="sRGB">
<feFlood flood-opacity="0" result="BackgroundImageFix"/>
<feBlend mode="normal" in="SourceGraphic" in2="BackgroundImageFix" result="shape"/>
<feGaussianBlur stdDeviation="23.9608" result="effect1_foregroundBlur_421_1778"/>
</filter>
<linearGradient id="paint0_linear_421_1778" x1="38.0518" y1="70.2346" x2="82.2616" y2="99.2769" gradientUnits="userSpaceOnUse">
<stop stop-color="#1B8CB6"/>
<stop offset="0.977083" stop-color="#3DAFE4"/>
</linearGradient>
<linearGradient id="paint1_linear_421_1778" x1="75.824" y1="119.876" x2="139.277" y2="142.339" gradientUnits="userSpaceOnUse">
<stop offset="0.00851699" stop-color="#3CAFE3"/>
<stop offset="0.0822776" stop-color="#44B8E5"/>
<stop offset="0.204513" stop-color="#7ACDEC"/>
<stop offset="0.401347" stop-color="#1BA4D8"/>
<stop offset="0.760908" stop-color="#21A5DF"/>
<stop offset="1" stop-color="#ADE3FE"/>
</linearGradient>
<linearGradient id="paint2_linear_421_1778" x1="119.166" y1="54.9268" x2="94.7693" y2="90.4142" gradientUnits="userSpaceOnUse">
<stop stop-color="#0075FF"/>
<stop offset="1" stop-color="#6D00FF"/>
</linearGradient>
<linearGradient id="paint3_linear_421_1778" x1="168.737" y1="79.1615" x2="61.2821" y2="82.25" gradientUnits="userSpaceOnUse">
<stop stop-color="#D9F4FE"/>
<stop offset="1" stop-color="#3BB3E0"/>
</linearGradient>
</defs>
</svg>

<svg width="193" height="162" fill="none" xmlns="http://www.w3.org/2000/svg"><g filter="url(#a)"><path d="M79.974 105.1c1.99.672 4.16 2.413 6.007 3.51l38.762 29.667c2.699 1.858 2.124 3.56-.297 4.164l-1.138.09-1.139.089-47.673.022c-2.134-.247-4.268-.493-6.258-1.165-1.99-.672-3.837-1.769-5.684-2.866l-38.762-29.666-.852-.761-.851-.762c-1.56-1.948-1.13-3.224 2.287-3.492l48.812-.111c2.134.246 3.802.182 6.786 1.281Z" fill="#26255F" fill-opacity=".3"/></g><path d="m152.561 85.088-1.292 3.828c-.144.426-1.283.515-1.283.515l1.292-3.828s1.139-.09 1.283-.515ZM151.131 86.033l-1.292 3.828-.144.425 1.436-4.253c-.995-.336-.995-.336 0 0Z" fill="#919191"/><path d="m49.626 51.769-1.292 3.828-.851-.761c-.852-.762-.709-1.187-.421-2.038l1.148-3.403c-.144.426.565 1.612 1.416 2.374Z" fill="#848484"/><path d="m150.135 85.699-1.292 3.828-1.139.09 2.431-3.918s-.144.425 0 0Z" fill="#8C8C8C"/><path d="m50.477 52.536-1.291 3.828-.852-.761 2.143-3.067s.144-.426 0 0Z" fill="#848484"/><path d="m148.999 85.785-1.292 3.828-47.817.447 1.292-3.829 47.817-.446Z" fill="#939393"/><path d="m89.239 82.199-1.293 3.828-38.761-29.666 1.292-3.828 38.762 29.666Z" fill="gray"/><path d="M101.183 86.221 99.89 90.05s-.995-.336-1.138.09l2.431-3.919c-.996-.336-1.139.09 0 0Z" fill="#8C8C8C"/><path d="m100.041 86.307-1.292 3.828c-.995-.335-1.139.09-2.134-.246l1.292-3.828c1.139-.09 1.139-.09 2.134.246Z" fill="#888"/><path d="m97.909 86.063-1.149 3.403-2.986-1.007c-1.99-.672-3.837-1.77-5.683-2.866l1.148-3.404c1.847 1.098 3.694 2.195 5.684 2.866l2.986 1.008Z" fill="#848484"/><path d="m141.076 119.115-1.292 3.829-.143.425 1.435-4.254s-.995-.336 0 0Z" fill="#838383"/><path d="m138.793 119.297-1.292 3.829-.995-.336 1.148-3.403 1.139-.09Z" fill="#828282"/><path fill-rule="evenodd" clip-rule="evenodd" d="M49.512 51.815c-.478-.316-.825-.545-.736-.808.052-.154.085-.252.06-.33-.047-.139-.277-.217-.911-.43L36.87 83a1.416 1.416 0 0 0-.001-.002l-1.292 3.829c-.23.678.983 1.727 2.42 2.68l-.01.03 38.62 30.092 1.291-3.829L89.238 82.2l-38.76-29.666.001-.004a8.134 8.134 0 0 0-.967-.715Zm-10.376 34.32Z" fill="url(#b)"/><path d="m89.839 119.837-1.292 3.828-.995-.336 1.148-3.403 1.139-.089Z" fill="#828282"/><path d="M98.054 85.64c.995.336.995.336 0 0l.995.336-11.342 33.606-2.134-.247 12.48-33.695c-.143.425-.143.425 0 0Z" fill="#888"/><path d="m86.57 119.676-1.291 3.828 1.292-3.828c-.996-.336-.996-.336 0 0ZM85.573 119.326l-1.291 3.829-.996-.336 2.287-3.493s-.995-.336 0 0Z" fill="gray"/><path fill-rule="evenodd" clip-rule="evenodd" d="m152.534 85.501-11.62 34.432a4.793 4.793 0 0 1-4.618 3.259l-9.912-.159-37.47.933c-1.555.253-4.306-.021-7.199-1.611l-.216-.073c-1.99-.672-6.2-2.988-7.916-5.436l3.698-3.424c.35.208.729.506 1.128.856l10.828-32.085c1.304.774 2.608 1.55 3.963 2.174l.105-.348 59.229 1.482Z" fill="url(#c)"/><g style="mix-blend-mode:lighten" filter="url(#d)"><path d="M107.317 50.678c1.99.672 3.837 1.769 5.684 2.866l38.762 29.666c2.698 1.859 2.124 3.56-.297 4.165l-1.139.089-1.139.09-47.673.02c-2.134-.246-4.267-.492-6.258-1.164-1.99-.671-3.837-1.769-5.684-2.866L50.812 53.878l-.852-.761-.852-.761c-1.56-1.948-1.129-3.225 2.288-3.493l48.811-.11c2.134.245 5.12 1.253 7.11 1.925Z" fill="url(#e)" fill-opacity=".6"/></g><path d="M106.66 48.683c1.99.671 4.16 2.413 6.007 3.51l38.762 29.667c2.698 1.858 2.124 3.56-.297 4.164l-1.139.09-1.139.09-47.673.02c-2.133-.246-4.267-.492-6.258-1.164-1.99-.672-3.837-1.769-5.683-2.866L50.478 52.528l-.852-.762-.852-.761c-1.56-1.948-1.129-3.224 2.288-3.493l48.811-.11c2.134.246 3.803.182 6.787 1.28Z" fill="url(#f)"/><defs><linearGradient id="b" x1="38.052" y1="70.235" x2="82.262" y2="99.277" gradientUnits="userSpaceOnUse"><stop stop-color="#1B8CB6"/><stop offset=".977" stop-color="#3DAFE4"/></linearGradient><linearGradient id="c" x1="75.824" y1="119.876" x2="139.277" y2="142.339" gradientUnits="userSpaceOnUse"><stop offset=".009" stop-color="#3CAFE3"/><stop offset=".082" stop-color="#44B8E5"/><stop offset=".205" stop-color="#7ACDEC"/><stop offset=".401" stop-color="#1BA4D8"/><stop offset=".761" stop-color="#21A5DF"/><stop offset="1" stop-color="#ADE3FE"/></linearGradient><linearGradient id="e" x1="119.166" y1="54.927" x2="94.769" y2="90.414" gradientUnits="userSpaceOnUse"><stop stop-color="#0075FF"/><stop offset="1" stop-color="#6D00FF"/></linearGradient><linearGradient id="f" x1="168.737" y1="79.162" x2="61.282" y2="82.25" gradientUnits="userSpaceOnUse"><stop stop-color="#D9F4FE"/><stop offset="1" stop-color="#3BB3E0"/></linearGradient><filter id="a" x="11.778" y="94.373" width="124.196" height="57.715" filterUnits="userSpaceOnUse" color-interpolation-filters="sRGB"><feFlood flood-opacity="0" result="BackgroundImageFix"/><feBlend in="SourceGraphic" in2="BackgroundImageFix" result="shape"/><feGaussianBlur stdDeviation="4.723" result="effect1_foregroundBlur_421_1778"/></filter><filter id="d" x=".323" y=".831" width="201.147" height="134.666" filterUnits="userSpaceOnUse" color-interpolation-filters="sRGB"><feFlood flood-opacity="0" result="BackgroundImageFix"/><feBlend in="SourceGraphic" in2="BackgroundImageFix" result="shape"/><feGaussianBlur stdDeviation="23.961" result="effect1_foregroundBlur_421_1778"/></filter></defs></svg>
